X:1
T: Mrs. Crawford's Favourite
C:
R:Strathspey
Q: 128
K:D
M:4/4
L:1/16
|:G2|FA3 A3B BAGF A2Bc|d3e f3e dB3 B3d|FA3 A3B BAGF d3B|BAGF AGFE D4 D2G2|
FA3 A3B BAGF A2Bc|d3e f3e dB3 B3d|FA3 A3B BAGF d3B|BAGF AGFE D4 D2fg|
a3b a3f d3A df3|e3f gfed B4 B2fg|a3b a3f d3A df3|e2fg agfe d4 d2fg|
a3b a3f d3A df3|e3f gfed B4 B2cd|A3B A3F A3d BAGF|EDEF AGFE D4 D2:|
